X:1
T:Title
%%score { 1 | 2 } { 3 | 4 }
L:1/8
Q:1/4=108
M:4/4
K:Eb
V:1 treble nm="Grand Piano, Soprano"
V:2 treble 
V:3 bass nm="Choir Pad, Klamath, 76.76 D"
V:4 bass 
V:1
 B2 G2 E2 D2- | DE G4 F2 | E2 A2 G2 c2- | cc B4 z2 | B2 c2 B2 A2- | AG G4 F2 | c2 c2 F2 A2- | %7
w: By~Felix~Mendelssohn~(1809\-1847) * * *|||||||
 AD E6 | G2 G2- GF F2 | F2 A4 G2- | G2 B2 B>B B2 | B2 =A6 | d2 e2 B2 A2 | G2 G4 F2 | c2 c2- cF G2 | %15
w: ||||||||
 A2 G4 z2 | B2 B2 e2 f2- | ff e2 d2 c2 | =B2 c2 z2 A2 | z2 A6 | D2 E6- | E2 z2 z4 |] %22
w: |||||||
V:2
 z8 | z2 E4 D2 | B,2 E2 E2 F2- | FF G4 z2 | A2 G2 E2 E2- | EE E4 E2 | E2 E2 E2 D2- | DB, B,6 | %8
 E2 C2- CC z2 | z2 D4 E2- | E2 =E2 E>E E2 | =E2 z2 z4 | _G2 =G2 E2 E2 | E2 E4 E2 | E2 D2- DD D2 | %15
 D2 E4 z2 | F2 G2 E2 [Dd]2- | [Dd]D G2 F2 E2 | F2 E6- | E4[K:bass] D2 C2 | B,2 B,6- | B,2 z2 z4 |] %22
V:3
 B,2 G,2 E,2 D,2- | D,E, B,4 A,2 | G,2[K:treble] C2 B,2 D2- | DD E4 z2 | D2 E2 E2 C2- | CC C4 C2 | %6
 A,2 A,2 F,2 F,2- | F,A, G,6 | B,2 =A,2- A,A, B,2 | B,2 =B,4[K:treble] C2- | C2 _D2 D>D D2 | %11
 _D2 =D6 | C2[K:bass] B,2 B,2 B,2 | B,2 C4 C2 | F,2 A,2- A,A, G,2 | F,2 E,2 G,2 B,2 | %16
 D2 E2 B,2 =B,2- | B,=B, B,4 C2 | D2 C2 z2 C2 | z2 F,6 | A,2 G,6- | G,2 z2 z4 |] %22
V:4
 z8 | z2 B,,4 B,,2 | B,,2 B,,2 B,,2 A,2- | A,A, G,4 z2 | F,2 E,2 G,2 z2 | z B, A,4 A,2 | %6
 z4 A,,2 B,,2- | B,,B,, E,6 | E,2 E,2- E,E, D,2 | D,2 F,4 E,2- | E,2 G,2 G,>G, G,2 | G,2 _G,6 | %12
 D,2 G,2 G,2 G,2 | G,2 A,4 A,,2 | A,,2 B,,2- B,,B,, B,,2 | B,,2 z2 z4 | A,2 G,2 G,2 G,2- | %17
 G,G, G,4 G,2 | G,2 C,2 z2 A,,2 | z2 B,,6 | B,,2 E,6- | E,2 z2 z4 |] %22

